X: 1
T: Union Street Session 1
C: Paul Cranford
O: Cape Breton Island
Z: 2014 John Chambers <jc:trillian.mit.edu>
S: printed copy from Debby Knight at RJ session
D: The Lighthouse,1996; Fiddler's Choice, Jerry Holland, The Bumblebees
B: The Lighthouse Collection, Paul Stewart Cranford
N:Composed for Kyle MacNeil (Barra MacNeils) after a session at his house.
M: 4/4
L: 1/8
R: reel
K: D
c |\
"D"d2AG F2DF | "A7"EA,~A,2 GFED | "D"F2AF "G"GABd | "A7"AE~E2 cdec | "D"d2AG F2DF |
"A7"EA,~A,2 GFED | "D"F2AF "G"GABd | "A7"AE~E2 "D"FDD :: c | "D"d2fd "(G)"gdfa | "A7"eA ~A2 cdec |
"D"d2fd "G"g2fg | "A7"aeeg (3fga ec | "D"d2fd "(G)"gdfa | "A7"eA ~A2 cdeg | "D"f2ed "A7"e2cd | "A7"e2dc "D"d2A :|
